media/1_plus_1.svg

<?xml version="1.0" encoding="UTF-8" standalone="no"?>
<svg
   version="1.1"
   id="svg444"
   viewBox="0 0 1490.1547 721.17634"
   sodipodi:docname="1_plus_1.svg"
   inkscape:version="1.4 (e7c3feb100, 2024-10-09)"
   xmlns:inkscape="http://www.inkscape.org/namespaces/inkscape"
   xmlns:sodipodi="http://sodipodi.sourceforge.net/DTD/sodipodi-0.dtd"
   xmlns="http://www.w3.org/2000/svg"
   xmlns:svg="http://www.w3.org/2000/svg">
  <defs
     id="defs448">
    <inkscape:path-effect
       effect="knot"
       id="path-effect1"
       is_visible="true"
       lpeversion="1"
       switcher_size="15"
       interruption_width="6.8"
       prop_to_stroke_width="true"
       add_stroke_width="inkscape_1.0_and_up"
       both="false"
       inverse_width="false"
       add_other_stroke_width="inkscape_1.0_and_up"
       crossing_points_vector="" />
  </defs>
  <sodipodi:namedview
     id="namedview446"
     pagecolor="#282a36"
     bordercolor="#666666"
     borderopacity="1.0"
     inkscape:showpageshadow="2"
     inkscape:pageopacity="0.0"
     inkscape:pagecheckerboard="0"
     inkscape:deskcolor="#d1d1d1"
     showgrid="false"
     inkscape:zoom="0.97472077"
     inkscape:cx="656.08533"
     inkscape:cy="419.09438"
     inkscape:window-width="2234"
     inkscape:window-height="1418"
     inkscape:window-x="0"
     inkscape:window-y="0"
     inkscape:window-maximized="1"
     inkscape:current-layer="g452">
    <inkscape:page
       x="0"
       y="0"
       id="page450"
       width="1490.1547"
       height="721.17633"
       margin="0"
       bleed="0" />
  </sodipodi:namedview>
  <g
     id="g452"
     inkscape:groupmode="layer"
     inkscape:label="Page 1"
     transform="matrix(1.3333333,0,0,-1.3333333,-0.09215399,716.35952)">
    <path
       id="path5610-7"
       style="fill:none;stroke:#ff851b;stroke-width:17.0079;stroke-linecap:butt;stroke-linejoin:miter;stroke-dasharray:none;stroke-opacity:1"
       class="stroke-orange"
       d="M 1022.5106,464.20553 672.9979,68.930089 M 676.71613,467.63773 809.90601,311.06166 M 885.6025,222.07397 1018.7924,65.497886 M 444.75637,464.20553 95.243644,68.930089 M 98.961866,467.63773 232.15176,311.06165 m 75.69649,-88.98768 133.1899,-156.576084 m 234.38175,5.67364 c -81.64075,-88.42045 -156.51609,-88.4912 -238.68273,0.49412 M 680.63905,462.4855 c -81.64075,88.42045 -156.51609,88.4912 -238.68273,-0.49412"
       inkscape:path-effect="#path-effect1"
       inkscape:original-d="M 1022.5106,464.20553 672.9979,68.930089 M 676.71613,467.63773 1018.7924,65.497886 M 444.75637,464.20553 95.243644,68.930089 M 98.961866,467.63773 441.03815,65.497886 m 234.38175,5.67364 c -81.64075,-88.42045 -156.51609,-88.4912 -238.68273,0.49412 M 680.63905,462.4855 c -81.64075,88.42045 -156.51609,88.4912 -238.68273,-0.49412" />
    <path
       class="fill-comment"
       style="display:inline;fill:#aaaaaa;fill-opacity:1;stroke:none;stroke-width:1;stroke-opacity:1"
       d="M 246.01397,-2.7236079 C 132.57126,7.554591 37.677016,87.711458 8.6013487,197.81803 c -11.3763109,43.08095 -11.3763109,94.5872 0,137.66814 C 36.038931,439.38951 120.95956,516.14931 228.01397,533.81334 c 19.81856,3.27007 64.18144,3.27007 84,0 116.94816,-19.29651 205.86474,-108.21307 225.16125,-225.16123 5.24361,-31.77941 2.82784,-78.35593 -5.74863,-110.83408 C 504.05213,94.153729 418.57571,16.764497 312.51398,-0.38258729 299.88708,-2.4239858 258.70724,-3.873652 246.01397,-2.7236079 Z M 309.51399,13.491615 C 459.05714,38.140618 554.6448,182.37998 518.43129,328.74267 493.75451,428.47782 411.85587,503.22351 309.01398,519.8697 c -19.5552,3.16524 -59.5468,3.16864 -78.50001,0.007 C 119.07629,501.28536 34.729305,416.84198 16.822879,305.94117 13.795369,287.19073 13.570625,248.39749 16.383804,230.15221 34.775601,110.86964 129.61494,21.631726 249.01397,11.261769 c 11.99123,-1.041449 48.90785,0.319238 60.50002,2.229959 z"
       id="path21850"
       inkscape:label="path21850" />
    <path
       class="fill-comment"
       style="display:inline;fill:#aaaaaa;fill-opacity:1;stroke:none;stroke-width:1;stroke-opacity:1"
       d="M 823.76823,-2.7236079 C 710.32552,7.554591 615.43128,87.711458 586.35561,197.81803 c -11.37631,43.08095 -11.37631,94.5872 0,137.66814 27.43758,103.90334 112.35821,180.66314 219.41262,198.32717 19.81856,3.27007 64.18144,3.27007 84,0 116.94817,-19.29651 205.86477,-108.21307 225.16127,-225.16123 5.2436,-31.77941 2.8278,-78.35593 -5.7487,-110.83408 C 1081.8064,94.153729 996.32997,16.764497 890.26824,-0.38258729 877.64134,-2.4239858 836.4615,-3.873652 823.76823,-2.7236079 Z M 887.26825,13.491615 C 1036.8114,38.140618 1132.3991,182.37998 1096.1856,328.74267 1071.5088,428.47782 989.61013,503.22351 886.76824,519.8697 c -19.5552,3.16524 -59.5468,3.16864 -78.50001,0.007 C 696.83055,501.28536 612.48357,416.84198 594.57714,305.94117 591.54963,287.19073 591.32488,248.39749 594.13806,230.15221 612.52986,110.86964 707.3692,21.631726 826.76823,11.261769 c 11.99123,-1.041449 48.90785,0.319238 60.50002,2.229959 z"
       id="path21850-1"
       inkscape:label="path21850" />
  </g>
</svg>

<svg xmlns="http://www.w3.org/2000/svg" viewBox="0 0 1490.155 721.176"><path d="M1022.51 464.206 672.999 68.93m3.718 398.708 133.19-156.576m75.697-88.988 133.19-156.576M444.755 464.206 95.244 68.93m3.718 398.708 133.19-156.576m75.696-88.988 133.19-156.576m234.382 5.674c-81.64-88.42-156.516-88.492-238.683.494m243.902 390.82c-81.64 88.42-156.516 88.49-238.683-.495" class="stroke-orange" style="fill:none;stroke:#ff851b;stroke-width:17.0079;stroke-linecap:butt;stroke-linejoin:miter;stroke-dasharray:none;stroke-opacity:1" transform="matrix(1.33333 0 0 -1.33333 -.092 716.36)"/><path d="M246.014-2.724C132.571 7.555 37.677 87.711 8.601 197.818c-11.376 43.081-11.376 94.587 0 137.668C36.04 439.39 120.96 516.15 228.014 533.813c19.819 3.27 64.181 3.27 84 0 116.948-19.296 205.865-108.213 225.161-225.16 5.244-31.78 2.828-78.357-5.748-110.835C504.052 94.154 418.576 16.764 312.514-.382c-12.627-2.042-53.807-3.492-66.5-2.342m63.5 16.216c149.543 24.649 245.13 168.888 208.917 315.25-24.676 99.736-106.575 174.482-209.417 191.128-19.555 3.165-59.547 3.168-78.5.007C119.076 501.285 34.729 416.842 16.823 305.94c-3.028-18.75-3.252-57.544-.44-75.789C34.777 110.87 129.616 21.632 249.015 11.262c11.991-1.042 48.908.319 60.5 2.23zM823.768-2.724C710.326 7.555 615.431 87.711 586.356 197.818c-11.377 43.081-11.377 94.587 0 137.668C613.793 439.39 698.714 516.15 805.768 533.813c19.819 3.27 64.182 3.27 84 0 116.948-19.296 205.865-108.213 225.161-225.16 5.244-31.78 2.828-78.357-5.748-110.835C1081.806 94.154 996.33 16.764 890.268-.382c-12.627-2.042-53.807-3.492-66.5-2.342m63.5 16.216c149.543 24.649 245.131 168.888 208.918 315.25-24.677 99.736-106.576 174.482-209.418 191.128-19.555 3.165-59.547 3.168-78.5.007-111.437-18.592-195.784-103.035-213.69-213.936-3.028-18.75-3.253-57.544-.44-75.789C612.53 110.87 707.37 21.632 826.768 11.262c11.991-1.042 48.908.319 60.5 2.23" class="fill-comment" style="display:inline;fill:#aaa;fill-opacity:1;stroke:none;stroke-width:1;stroke-opacity:1" transform="matrix(1.33333 0 0 -1.33333 -.092 716.36)"/></svg>
